images/274104.svg

<?xml version="1.0" encoding="UTF-8"?>
<svg xmlns="http://www.w3.org/2000/svg" xmlns:xlink="http://www.w3.org/1999/xlink" width="300pt" height="300pt" viewBox="0 0 300 300" version="1.1">
<defs>
<g>
<symbol overflow="visible" id="glyph0-0">
<path style="stroke:none;" d="M 0.640625 2.296875 L 0.640625 -9.171875 L 7.140625 -9.171875 L 7.140625 2.296875 Z M 1.375 1.578125 L 6.421875 1.578125 L 6.421875 -8.4375 L 1.375 -8.4375 Z M 1.375 1.578125 "/>
</symbol>
<symbol overflow="visible" id="glyph0-1">
<path style="stroke:none;" d="M 5.125 -8.609375 C 4.1875 -8.609375 3.441406 -8.257812 2.890625 -7.5625 C 2.347656 -6.875 2.078125 -5.929688 2.078125 -4.734375 C 2.078125 -3.535156 2.347656 -2.585938 2.890625 -1.890625 C 3.441406 -1.203125 4.1875 -0.859375 5.125 -0.859375 C 6.050781 -0.859375 6.785156 -1.203125 7.328125 -1.890625 C 7.878906 -2.585938 8.15625 -3.535156 8.15625 -4.734375 C 8.15625 -5.929688 7.878906 -6.875 7.328125 -7.5625 C 6.785156 -8.257812 6.050781 -8.609375 5.125 -8.609375 Z M 5.125 -9.65625 C 6.445312 -9.65625 7.503906 -9.207031 8.296875 -8.3125 C 9.097656 -7.414062 9.5 -6.222656 9.5 -4.734375 C 9.5 -3.234375 9.097656 -2.035156 8.296875 -1.140625 C 7.503906 -0.253906 6.445312 0.1875 5.125 0.1875 C 3.789062 0.1875 2.722656 -0.253906 1.921875 -1.140625 C 1.128906 -2.035156 0.734375 -3.234375 0.734375 -4.734375 C 0.734375 -6.222656 1.128906 -7.414062 1.921875 -8.3125 C 2.722656 -9.207031 3.789062 -9.65625 5.125 -9.65625 Z M 5.125 -9.65625 "/>
</symbol>
<symbol overflow="visible" id="glyph0-2">
<path style="stroke:none;" d="M 1.28125 -9.484375 L 2.5625 -9.484375 L 2.5625 -5.59375 L 7.21875 -5.59375 L 7.21875 -9.484375 L 8.5 -9.484375 L 8.5 0 L 7.21875 0 L 7.21875 -4.515625 L 2.5625 -4.515625 L 2.5625 0 L 1.28125 0 Z M 1.28125 -9.484375 "/>
</symbol>
<symbol overflow="visible" id="glyph0-3">
<path style="stroke:none;" d="M 2.5625 -4.53125 L 2.5625 -1.046875 L 4.609375 -1.046875 C 5.304688 -1.046875 5.816406 -1.1875 6.140625 -1.46875 C 6.472656 -1.757812 6.640625 -2.203125 6.640625 -2.796875 C 6.640625 -3.390625 6.472656 -3.828125 6.140625 -4.109375 C 5.816406 -4.390625 5.304688 -4.53125 4.609375 -4.53125 Z M 2.5625 -8.421875 L 2.5625 -5.5625 L 4.453125 -5.5625 C 5.078125 -5.5625 5.539062 -5.675781 5.84375 -5.90625 C 6.15625 -6.144531 6.3125 -6.507812 6.3125 -7 C 6.3125 -7.476562 6.15625 -7.832031 5.84375 -8.0625 C 5.539062 -8.300781 5.078125 -8.421875 4.453125 -8.421875 Z M 1.28125 -9.484375 L 4.546875 -9.484375 C 5.523438 -9.484375 6.28125 -9.28125 6.8125 -8.875 C 7.34375 -8.46875 7.609375 -7.890625 7.609375 -7.140625 C 7.609375 -6.554688 7.472656 -6.09375 7.203125 -5.75 C 6.929688 -5.40625 6.53125 -5.191406 6 -5.109375 C 6.632812 -4.972656 7.125 -4.691406 7.46875 -4.265625 C 7.820312 -3.835938 8 -3.300781 8 -2.65625 C 8 -1.8125 7.707031 -1.15625 7.125 -0.6875 C 6.550781 -0.226562 5.734375 0 4.671875 0 L 1.28125 0 Z M 1.28125 -9.484375 "/>
</symbol>
<symbol overflow="visible" id="glyph0-4">
<path style="stroke:none;" d="M 5.34375 -6.015625 C 5.207031 -6.085938 5.0625 -6.140625 4.90625 -6.171875 C 4.757812 -6.210938 4.59375 -6.234375 4.40625 -6.234375 C 3.75 -6.234375 3.242188 -6.019531 2.890625 -5.59375 C 2.535156 -5.164062 2.359375 -4.550781 2.359375 -3.75 L 2.359375 0 L 1.1875 0 L 1.1875 -7.109375 L 2.359375 -7.109375 L 2.359375 -6 C 2.597656 -6.4375 2.914062 -6.757812 3.3125 -6.96875 C 3.707031 -7.175781 4.1875 -7.28125 4.75 -7.28125 C 4.832031 -7.28125 4.921875 -7.273438 5.015625 -7.265625 C 5.109375 -7.253906 5.21875 -7.238281 5.34375 -7.21875 Z M 5.34375 -6.015625 "/>
</symbol>
</g>
</defs>
<g id="surface35401">
<rect x="0" y="0" width="300" height="300" style="fill:rgb(100%,100%,100%);fill-opacity:1;stroke:none;"/>
<path style="fill:none;stroke-width:1.2;stroke-linecap:butt;stroke-linejoin:miter;stroke:rgb(0%,0%,0%);stroke-opacity:1;stroke-miterlimit:10;" d="M 208.632812 224.46875 L 179.316406 210.445312 "/>
<path style="fill:none;stroke-width:1.2;stroke-linecap:butt;stroke-linejoin:miter;stroke:rgb(0%,0%,0%);stroke-opacity:1;stroke-miterlimit:10;" d="M 209 216.171875 L 185.546875 204.953125 "/>
<path style="fill:none;stroke-width:1.2;stroke-linecap:butt;stroke-linejoin:miter;stroke:rgb(0%,0%,0%);stroke-opacity:1;stroke-miterlimit:10;" d="M 235.433594 206.09375 L 208.632812 224.46875 "/>
<path style="fill:none;stroke-width:1.2;stroke-linecap:butt;stroke-linejoin:miter;stroke:rgb(0%,0%,0%);stroke-opacity:1;stroke-miterlimit:10;" d="M 179.316406 210.445312 L 176.800781 178.046875 "/>
<path style="fill:none;stroke-width:1.2;stroke-linecap:butt;stroke-linejoin:miter;stroke:rgb(0%,0%,0%);stroke-opacity:1;stroke-miterlimit:10;" d="M 176.800781 178.046875 L 203.605469 159.671875 "/>
<path style="fill:none;stroke-width:1.2;stroke-linecap:butt;stroke-linejoin:miter;stroke:rgb(0%,0%,0%);stroke-opacity:1;stroke-miterlimit:10;" d="M 175.160156 169.902344 L 196.601562 155.203125 "/>
<path style="fill:none;stroke-width:1.2;stroke-linecap:butt;stroke-linejoin:miter;stroke:rgb(0%,0%,0%);stroke-opacity:1;stroke-miterlimit:10;" d="M 147.488281 164.023438 L 176.800781 178.046875 "/>
<path style="fill:none;stroke-width:1.2;stroke-linecap:butt;stroke-linejoin:miter;stroke:rgb(0%,0%,0%);stroke-opacity:1;stroke-miterlimit:10;" d="M 203.605469 159.671875 L 232.921875 173.695312 "/>
<path style="fill:none;stroke-width:1.2;stroke-linecap:butt;stroke-linejoin:miter;stroke:rgb(0%,0%,0%);stroke-opacity:1;stroke-miterlimit:10;" d="M 203.605469 159.671875 L 202.347656 143.46875 "/>
<path style="fill:none;stroke-width:1.2;stroke-linecap:butt;stroke-linejoin:miter;stroke:rgb(100%,0%,0%);stroke-opacity:1;stroke-miterlimit:10;" d="M 202.347656 143.46875 L 201.09375 127.269531 "/>
<path style="fill:none;stroke-width:1.2;stroke-linecap:butt;stroke-linejoin:miter;stroke:rgb(0%,0%,0%);stroke-opacity:1;stroke-miterlimit:10;" d="M 232.921875 173.695312 L 235.433594 206.09375 "/>
<path style="fill:none;stroke-width:1.2;stroke-linecap:butt;stroke-linejoin:miter;stroke:rgb(0%,0%,0%);stroke-opacity:1;stroke-miterlimit:10;" d="M 225.546875 177.527344 L 227.558594 203.445312 "/>
<path style="fill:none;stroke-width:1.2;stroke-linecap:butt;stroke-linejoin:miter;stroke:rgb(0%,0%,0%);stroke-opacity:1;stroke-miterlimit:10;" d="M 235.433594 206.09375 L 250.09375 213.105469 "/>
<path style="fill:none;stroke-width:1.2;stroke-linecap:butt;stroke-linejoin:miter;stroke:rgb(100%,0%,0%);stroke-opacity:1;stroke-miterlimit:10;" d="M 250.09375 213.105469 L 264.75 220.117188 "/>
<path style=" stroke:none;fill-rule:nonzero;fill:rgb(100%,100%,100%);fill-opacity:1;" d="M 254.75 212.117188 L 275.75 212.117188 L 275.75 228.117188 L 254.75 228.117188 Z M 254.75 212.117188 "/>
<g style="fill:rgb(100%,0%,0%);fill-opacity:1;">
  <use xlink:href="#glyph0-1" x="254.75" y="224.493164"/>
  <use xlink:href="#glyph0-2" x="265.240234" y="224.493164"/>
</g>
<path style="fill:none;stroke-width:1.2;stroke-linecap:butt;stroke-linejoin:miter;stroke:rgb(100%,0%,0%);stroke-opacity:1;stroke-miterlimit:10;" d="M 201.09375 127.269531 L 186.433594 120.257812 "/>
<path style="fill:none;stroke-width:1.2;stroke-linecap:butt;stroke-linejoin:miter;stroke:rgb(0%,0%,0%);stroke-opacity:1;stroke-miterlimit:10;" d="M 186.433594 120.257812 L 171.777344 113.246094 "/>
<path style=" stroke:none;fill-rule:nonzero;fill:rgb(100%,100%,100%);fill-opacity:1;" d="M 196.09375 119.269531 L 207.09375 119.269531 L 207.09375 135.269531 L 196.09375 135.269531 Z M 196.09375 119.269531 "/>
<g style="fill:rgb(100%,0%,0%);fill-opacity:1;">
  <use xlink:href="#glyph0-1" x="196.09375" y="131.645508"/>
</g>
<path style="fill:none;stroke-width:1.2;stroke-linecap:butt;stroke-linejoin:miter;stroke:rgb(0%,0%,0%);stroke-opacity:1;stroke-miterlimit:10;" d="M 171.777344 113.246094 L 144.972656 131.625 "/>
<path style="fill:none;stroke-width:1.2;stroke-linecap:butt;stroke-linejoin:miter;stroke:rgb(0%,0%,0%);stroke-opacity:1;stroke-miterlimit:10;" d="M 164.773438 108.777344 L 143.328125 123.480469 "/>
<path style="fill:none;stroke-width:1.2;stroke-linecap:butt;stroke-linejoin:miter;stroke:rgb(0%,0%,0%);stroke-opacity:1;stroke-miterlimit:10;" d="M 169.261719 80.847656 L 171.777344 113.246094 "/>
<path style="fill:none;stroke-width:1.2;stroke-linecap:butt;stroke-linejoin:miter;stroke:rgb(0%,0%,0%);stroke-opacity:1;stroke-miterlimit:10;" d="M 144.972656 131.625 L 147.488281 164.023438 "/>
<path style="fill:none;stroke-width:1.2;stroke-linecap:butt;stroke-linejoin:miter;stroke:rgb(0%,0%,0%);stroke-opacity:1;stroke-miterlimit:10;" d="M 144.972656 131.625 L 115.65625 117.601562 "/>
<path style="fill:none;stroke-width:1.2;stroke-linecap:butt;stroke-linejoin:miter;stroke:rgb(0%,0%,0%);stroke-opacity:1;stroke-miterlimit:10;" d="M 147.488281 164.023438 L 120.683594 182.398438 "/>
<path style="fill:none;stroke-width:1.2;stroke-linecap:butt;stroke-linejoin:miter;stroke:rgb(0%,0%,0%);stroke-opacity:1;stroke-miterlimit:10;" d="M 120.683594 182.398438 L 91.367188 168.375 "/>
<path style="fill:none;stroke-width:1.2;stroke-linecap:butt;stroke-linejoin:miter;stroke:rgb(0%,0%,0%);stroke-opacity:1;stroke-miterlimit:10;" d="M 114.453125 187.894531 L 91 176.675781 "/>
<path style="fill:none;stroke-width:1.2;stroke-linecap:butt;stroke-linejoin:miter;stroke:rgb(0%,0%,0%);stroke-opacity:1;stroke-miterlimit:10;" d="M 123.199219 214.800781 L 120.683594 182.398438 "/>
<path style="fill:none;stroke-width:1.2;stroke-linecap:butt;stroke-linejoin:miter;stroke:rgb(0%,0%,0%);stroke-opacity:1;stroke-miterlimit:10;" d="M 91.367188 168.375 L 64.566406 186.753906 "/>
<path style="fill:none;stroke-width:1.2;stroke-linecap:butt;stroke-linejoin:miter;stroke:rgb(0%,0%,0%);stroke-opacity:1;stroke-miterlimit:10;" d="M 91.367188 168.375 L 88.855469 135.976562 "/>
<path style="fill:none;stroke-width:1.2;stroke-linecap:butt;stroke-linejoin:miter;stroke:rgb(0%,0%,0%);stroke-opacity:1;stroke-miterlimit:10;" d="M 64.566406 186.753906 L 67.078125 219.152344 "/>
<path style="fill:none;stroke-width:1.2;stroke-linecap:butt;stroke-linejoin:miter;stroke:rgb(0%,0%,0%);stroke-opacity:1;stroke-miterlimit:10;" d="M 72.441406 189.402344 L 74.453125 215.320312 "/>
<path style="fill:none;stroke-width:1.2;stroke-linecap:butt;stroke-linejoin:miter;stroke:rgb(0%,0%,0%);stroke-opacity:1;stroke-miterlimit:10;" d="M 64.566406 186.753906 L 49.90625 179.742188 "/>
<path style="fill:none;stroke-width:1.2;stroke-linecap:butt;stroke-linejoin:miter;stroke:rgb(50%,30%,10%);stroke-opacity:1;stroke-miterlimit:10;" d="M 49.90625 179.742188 L 35.25 172.730469 "/>
<path style="fill:none;stroke-width:1.2;stroke-linecap:butt;stroke-linejoin:miter;stroke:rgb(0%,0%,0%);stroke-opacity:1;stroke-miterlimit:10;" d="M 67.078125 219.152344 L 96.394531 233.175781 "/>
<path style="fill:none;stroke-width:1.2;stroke-linecap:butt;stroke-linejoin:miter;stroke:rgb(0%,0%,0%);stroke-opacity:1;stroke-miterlimit:10;" d="M 67.078125 219.152344 L 53.675781 228.339844 "/>
<path style="fill:none;stroke-width:1.2;stroke-linecap:butt;stroke-linejoin:miter;stroke:rgb(50%,30%,10%);stroke-opacity:1;stroke-miterlimit:10;" d="M 53.675781 228.339844 L 40.277344 237.53125 "/>
<path style="fill:none;stroke-width:1.2;stroke-linecap:butt;stroke-linejoin:miter;stroke:rgb(0%,0%,0%);stroke-opacity:1;stroke-miterlimit:10;" d="M 96.394531 233.175781 L 123.199219 214.800781 "/>
<path style="fill:none;stroke-width:1.2;stroke-linecap:butt;stroke-linejoin:miter;stroke:rgb(0%,0%,0%);stroke-opacity:1;stroke-miterlimit:10;" d="M 94.75 225.03125 L 116.191406 210.332031 "/>
<path style="fill:none;stroke-width:1.2;stroke-linecap:butt;stroke-linejoin:miter;stroke:rgb(0%,0%,0%);stroke-opacity:1;stroke-miterlimit:10;" d="M 96.394531 233.175781 L 97.652344 249.375 "/>
<path style="fill:none;stroke-width:1.2;stroke-linecap:butt;stroke-linejoin:miter;stroke:rgb(50%,30%,10%);stroke-opacity:1;stroke-miterlimit:10;" d="M 97.652344 249.375 L 98.90625 265.578125 "/>
<path style="fill:none;stroke-width:1.2;stroke-linecap:butt;stroke-linejoin:miter;stroke:rgb(0%,0%,0%);stroke-opacity:1;stroke-miterlimit:10;" d="M 123.199219 214.800781 L 137.855469 221.8125 "/>
<path style="fill:none;stroke-width:1.2;stroke-linecap:butt;stroke-linejoin:miter;stroke:rgb(50%,30%,10%);stroke-opacity:1;stroke-miterlimit:10;" d="M 137.855469 221.8125 L 152.511719 228.824219 "/>
<path style=" stroke:none;fill-rule:nonzero;fill:rgb(100%,100%,100%);fill-opacity:1;" d="M 145.511719 220.824219 L 160.511719 220.824219 L 160.511719 236.824219 L 145.511719 236.824219 Z M 145.511719 220.824219 "/>
<g style="fill:rgb(50%,30%,10%);fill-opacity:1;">
  <use xlink:href="#glyph0-3" x="145.511719" y="233.200195"/>
  <use xlink:href="#glyph0-4" x="154.655273" y="233.200195"/>
</g>
<path style=" stroke:none;fill-rule:nonzero;fill:rgb(100%,100%,100%);fill-opacity:1;" d="M 91.90625 257.578125 L 106.90625 257.578125 L 106.90625 273.578125 L 91.90625 273.578125 Z M 91.90625 257.578125 "/>
<g style="fill:rgb(50%,30%,10%);fill-opacity:1;">
  <use xlink:href="#glyph0-3" x="91.90625" y="269.954102"/>
  <use xlink:href="#glyph0-4" x="101.049805" y="269.954102"/>
</g>
<path style=" stroke:none;fill-rule:nonzero;fill:rgb(100%,100%,100%);fill-opacity:1;" d="M 25.277344 229.53125 L 40.277344 229.53125 L 40.277344 245.53125 L 25.277344 245.53125 Z M 25.277344 229.53125 "/>
<g style="fill:rgb(50%,30%,10%);fill-opacity:1;">
  <use xlink:href="#glyph0-3" x="25.277344" y="241.907227"/>
  <use xlink:href="#glyph0-4" x="34.420898" y="241.907227"/>
</g>
<path style=" stroke:none;fill-rule:nonzero;fill:rgb(100%,100%,100%);fill-opacity:1;" d="M 20.25 164.730469 L 35.25 164.730469 L 35.25 180.730469 L 20.25 180.730469 Z M 20.25 164.730469 "/>
<g style="fill:rgb(50%,30%,10%);fill-opacity:1;">
  <use xlink:href="#glyph0-3" x="20.25" y="177.106445"/>
  <use xlink:href="#glyph0-4" x="29.393555" y="177.106445"/>
</g>
<path style="fill:none;stroke-width:1.2;stroke-linecap:butt;stroke-linejoin:miter;stroke:rgb(0%,0%,0%);stroke-opacity:1;stroke-miterlimit:10;" d="M 91.714844 138.511719 L 97.445312 132.050781 "/>
<path style="fill:none;stroke-width:1.2;stroke-linecap:butt;stroke-linejoin:miter;stroke:rgb(100%,0%,0%);stroke-opacity:1;stroke-miterlimit:10;" d="M 97.445312 132.050781 L 103.171875 125.589844 "/>
<path style="fill:none;stroke-width:1.2;stroke-linecap:butt;stroke-linejoin:miter;stroke:rgb(0%,0%,0%);stroke-opacity:1;stroke-miterlimit:10;" d="M 85.996094 133.441406 L 91.722656 126.980469 "/>
<path style="fill:none;stroke-width:1.2;stroke-linecap:butt;stroke-linejoin:miter;stroke:rgb(100%,0%,0%);stroke-opacity:1;stroke-miterlimit:10;" d="M 91.722656 126.980469 L 97.453125 120.519531 "/>
<path style="fill:none;stroke-width:1.2;stroke-linecap:butt;stroke-linejoin:miter;stroke:rgb(0%,0%,0%);stroke-opacity:1;stroke-miterlimit:10;" d="M 88.855469 135.976562 L 74.199219 128.964844 "/>
<path style="fill:none;stroke-width:1.2;stroke-linecap:butt;stroke-linejoin:miter;stroke:rgb(100%,0%,0%);stroke-opacity:1;stroke-miterlimit:10;" d="M 74.199219 128.964844 L 59.539062 121.953125 "/>
<path style=" stroke:none;fill-rule:nonzero;fill:rgb(100%,100%,100%);fill-opacity:1;" d="M 95.3125 115.054688 L 106.3125 115.054688 L 106.3125 131.054688 L 95.3125 131.054688 Z M 95.3125 115.054688 "/>
<g style="fill:rgb(100%,0%,0%);fill-opacity:1;">
  <use xlink:href="#glyph0-1" x="95.3125" y="127.430664"/>
</g>
<path style=" stroke:none;fill-rule:nonzero;fill:rgb(100%,100%,100%);fill-opacity:1;" d="M 38.539062 113.953125 L 59.539062 113.953125 L 59.539062 129.953125 L 38.539062 129.953125 Z M 38.539062 113.953125 "/>
<g style="fill:rgb(100%,0%,0%);fill-opacity:1;">
  <use xlink:href="#glyph0-2" x="38.539062" y="126.329102"/>
  <use xlink:href="#glyph0-1" x="48.561523" y="126.329102"/>
</g>
<path style="fill:none;stroke-width:1.2;stroke-linecap:butt;stroke-linejoin:miter;stroke:rgb(0%,0%,0%);stroke-opacity:1;stroke-miterlimit:10;" d="M 115.65625 117.601562 L 113.144531 85.199219 "/>
<path style="fill:none;stroke-width:1.2;stroke-linecap:butt;stroke-linejoin:miter;stroke:rgb(0%,0%,0%);stroke-opacity:1;stroke-miterlimit:10;" d="M 123.03125 113.769531 L 121.019531 87.847656 "/>
<path style="fill:none;stroke-width:1.2;stroke-linecap:butt;stroke-linejoin:miter;stroke:rgb(0%,0%,0%);stroke-opacity:1;stroke-miterlimit:10;" d="M 113.144531 85.199219 L 139.949219 66.824219 "/>
<path style="fill:none;stroke-width:1.2;stroke-linecap:butt;stroke-linejoin:miter;stroke:rgb(0%,0%,0%);stroke-opacity:1;stroke-miterlimit:10;" d="M 139.949219 66.824219 L 169.261719 80.847656 "/>
<path style="fill:none;stroke-width:1.2;stroke-linecap:butt;stroke-linejoin:miter;stroke:rgb(0%,0%,0%);stroke-opacity:1;stroke-miterlimit:10;" d="M 139.578125 75.125 L 163.03125 86.34375 "/>
<path style="fill:none;stroke-width:1.2;stroke-linecap:butt;stroke-linejoin:miter;stroke:rgb(0%,0%,0%);stroke-opacity:1;stroke-miterlimit:10;" d="M 139.949219 66.824219 L 138.691406 50.625 "/>
<path style="fill:none;stroke-width:1.2;stroke-linecap:butt;stroke-linejoin:miter;stroke:rgb(100%,0%,0%);stroke-opacity:1;stroke-miterlimit:10;" d="M 138.691406 50.625 L 137.433594 34.421875 "/>
<path style=" stroke:none;fill-rule:nonzero;fill:rgb(100%,100%,100%);fill-opacity:1;" d="M 127.433594 26.421875 L 148.433594 26.421875 L 148.433594 42.421875 L 127.433594 42.421875 Z M 127.433594 26.421875 "/>
<g style="fill:rgb(100%,0%,0%);fill-opacity:1;">
  <use xlink:href="#glyph0-2" x="127.433594" y="38.797852"/>
  <use xlink:href="#glyph0-1" x="137.456055" y="38.797852"/>
</g>
</g>
</svg>

<svg xmlns="http://www.w3.org/2000/svg" xmlns:xlink="http://www.w3.org/1999/xlink" width="300pt" height="300pt" viewBox="0 0 300 300"><defs><symbol overflow="visible"><path d="M.64 2.297v-11.47h6.5v11.47zm.735-.72h5.047V-8.436H1.375zm0 0"/></symbol><symbol overflow="visible" id="a"><path d="M5.125-8.61c-.938 0-1.684.352-2.234 1.047-.542.688-.812 1.633-.812 2.83 0 1.198.27 2.147.813 2.842.55.687 1.297 1.03 2.235 1.03.926 0 1.66-.343 2.203-1.03.55-.696.828-1.645.828-2.844 0-1.196-.277-2.14-.828-2.829-.543-.695-1.277-1.046-2.203-1.046zm0-1.046c1.32 0 2.38.45 3.172 1.344.8.898 1.203 2.09 1.203 3.578 0 1.5-.402 2.7-1.203 3.593C7.504-.255 6.445.186 5.125.186c-1.336 0-2.402-.44-3.203-1.328C1.13-2.036.734-3.235.734-4.735c0-1.49.395-2.68 1.188-3.579.8-.894 1.867-1.343 3.203-1.343zm0 0"/></symbol><symbol overflow="visible" id="b"><path d="M1.28-9.484h1.282v3.89H7.22v-3.89H8.5V0H7.22v-4.516H2.562V0H1.28zm0 0"/></symbol><symbol overflow="visible" id="c"><path d="M2.563-4.53v3.483h2.046c.695 0 1.206-.14 1.53-.422.333-.288.5-.733.5-1.327s-.167-1.03-.5-1.312c-.324-.28-.835-.42-1.53-.42zm0-3.892v2.86h1.89c.625 0 1.086-.114 1.39-.344.313-.24.47-.602.47-1.094 0-.477-.157-.832-.47-1.063-.304-.238-.765-.36-1.39-.36zM1.28-9.484h3.267c.976 0 1.734.203 2.266.61.53.405.796.983.796 1.733 0 .585-.137 1.046-.407 1.39-.273.344-.672.56-1.203.64.633.137 1.125.42 1.47.844.35.43.53.965.53 1.61 0 .844-.293 1.5-.875 1.97C6.55-.227 5.735 0 4.672 0h-3.39zm0 0"/></symbol><symbol overflow="visible" id="d"><path d="M5.344-6.016c-.137-.07-.282-.125-.438-.156-.148-.04-.312-.062-.5-.062-.656 0-1.164.214-1.515.64-.355.43-.53 1.043-.53 1.844V0H1.187v-7.11h1.17V-6c.24-.438.556-.758.954-.97.395-.206.876-.31 1.438-.31.082 0 .172.007.266.014.093.012.203.028.328.047zm0 0"/></symbol></defs><g><path fill="#fff" d="M0 0h300v300H0z"/><path d="M208.633 224.47l-29.317-14.025M209 216.172l-23.453-11.22M235.434 206.094l-26.8 18.375M179.316 210.445l-2.515-32.398M176.8 178.047l26.805-18.375M175.16 169.902l21.442-14.7M147.488 164.023l29.313 14.024M203.605 159.672l29.317 14.023M203.605 159.672l-1.257-16.203" stroke-width="1.2" stroke="#000" stroke-miterlimit="10" fill="none"/><path d="M202.348 143.47l-1.254-16.2" stroke-width="1.2" stroke="#f00" stroke-miterlimit="10" fill="none"/><path d="M232.922 173.695l2.512 32.4M225.547 177.527l2.012 25.918M235.434 206.094l14.66 7.01" stroke-width="1.2" stroke="#000" stroke-miterlimit="10" fill="none"/><path d="M250.094 213.105l14.656 7.012" stroke-width="1.2" stroke="#f00" stroke-miterlimit="10" fill="none"/><path d="M254.75 212.117h21v16h-21zm0 0" fill="#fff"/><g fill="#f00"><use xlink:href="#a" x="254.75" y="224.493"/><use xlink:href="#b" x="265.24" y="224.493"/></g><path d="M201.094 127.27l-14.66-7.012" stroke-width="1.2" stroke="#f00" stroke-miterlimit="10" fill="none"/><path d="M186.434 120.258l-14.657-7.012" stroke-width="1.2" stroke="#000" stroke-miterlimit="10" fill="none"/><path d="M196.094 119.27h11v16h-11zm0 0" fill="#fff"/><use xlink:href="#a" x="196.094" y="131.646" fill="#f00"/><path d="M171.777 113.246l-26.804 18.38M164.773 108.777l-21.445 14.703M169.262 80.848l2.515 32.398M144.973 131.625l2.515 32.398M144.973 131.625l-29.317-14.023M147.488 164.023l-26.804 18.375M120.684 182.398l-29.317-14.023M114.453 187.895L91 176.675M123.2 214.8l-2.516-32.402M91.367 168.375l-26.8 18.38M91.367 168.375l-2.512-32.398M64.566 186.754l2.512 32.398M72.44 189.402l2.013 25.918M64.566 186.754l-14.66-7.012" stroke-width="1.2" stroke="#000" stroke-miterlimit="10" fill="none"/><path d="M49.906 179.742L35.25 172.73" stroke-width="1.2" stroke="#7f4d1a" stroke-miterlimit="10" fill="none"/><path d="M67.078 219.152l29.317 14.024M67.078 219.152l-13.402 9.188" stroke-width="1.2" stroke="#000" stroke-miterlimit="10" fill="none"/><path d="M53.676 228.34l-13.4 9.19" stroke-width="1.2" stroke="#7f4d1a" stroke-miterlimit="10" fill="none"/><path d="M96.395 233.176L123.2 214.8M94.75 225.03l21.44-14.698M96.395 233.176l1.257 16.2" stroke-width="1.2" stroke="#000" stroke-miterlimit="10" fill="none"/><path d="M97.652 249.375l1.254 16.203" stroke-width="1.2" stroke="#7f4d1a" stroke-miterlimit="10" fill="none"/><path d="M123.2 214.8l14.655 7.012" stroke-width="1.2" stroke="#000" stroke-miterlimit="10" fill="none"/><path d="M137.855 221.813l14.657 7.01" stroke-width="1.2" stroke="#7f4d1a" stroke-miterlimit="10" fill="none"/><path d="M145.512 220.824h15v16h-15zm0 0" fill="#fff"/><g fill="#7f4d1a"><use xlink:href="#c" x="145.512" y="233.2"/><use xlink:href="#d" x="154.655" y="233.2"/></g><path d="M91.906 257.578h15v16h-15zm0 0" fill="#fff"/><g fill="#7f4d1a"><use xlink:href="#c" x="91.906" y="269.954"/><use xlink:href="#d" x="101.05" y="269.954"/></g><path d="M25.277 229.53h15v16h-15zm0 0" fill="#fff"/><g fill="#7f4d1a"><use xlink:href="#c" x="25.277" y="241.907"/><use xlink:href="#d" x="34.421" y="241.907"/></g><path d="M20.25 164.73h15v16h-15zm0 0" fill="#fff"/><g fill="#7f4d1a"><use xlink:href="#c" x="20.25" y="177.106"/><use xlink:href="#d" x="29.394" y="177.106"/></g><path d="M91.715 138.512l5.73-6.46" stroke-width="1.2" stroke="#000" stroke-miterlimit="10" fill="none"/><path d="M97.445 132.05l5.727-6.46" stroke-width="1.2" stroke="#f00" stroke-miterlimit="10" fill="none"/><path d="M85.996 133.44l5.727-6.46" stroke-width="1.2" stroke="#000" stroke-miterlimit="10" fill="none"/><path d="M91.723 126.98l5.73-6.46" stroke-width="1.2" stroke="#f00" stroke-miterlimit="10" fill="none"/><path d="M88.855 135.977L74.2 128.965" stroke-width="1.2" stroke="#000" stroke-miterlimit="10" fill="none"/><path d="M74.2 128.965l-14.66-7.012" stroke-width="1.2" stroke="#f00" stroke-miterlimit="10" fill="none"/><path d="M95.313 115.055h11v16h-11zm0 0" fill="#fff"/><use xlink:href="#a" x="95.313" y="127.431" fill="#f00"/><path d="M38.54 113.953h21v16h-21zm0 0" fill="#fff"/><g fill="#f00"><use xlink:href="#b" x="38.539" y="126.329"/><use xlink:href="#a" x="48.562" y="126.329"/></g><path d="M115.656 117.602l-2.51-32.403M123.03 113.77l-2.01-25.922M113.145 85.2l26.804-18.376M139.95 66.824l29.312 14.024M139.578 75.125l23.453 11.22M139.95 66.824l-1.26-16.2" stroke-width="1.2" stroke="#000" stroke-miterlimit="10" fill="none"/><path d="M138.69 50.625l-1.256-16.203" stroke-width="1.2" stroke="#f00" stroke-miterlimit="10" fill="none"/><path d="M127.434 26.422h21v16h-21zm0 0" fill="#fff"/><g fill="#f00"><use xlink:href="#b" x="127.434" y="38.798"/><use xlink:href="#a" x="137.456" y="38.798"/></g></g></svg>
